actions/24/system-run.svg

<?xml version="1.0" encoding="UTF-8" standalone="no"?>
<svg
   xmlns:dc="http://purl.org/dc/elements/1.1/"
   xmlns:cc="http://creativecommons.org/ns#"
   xmlns:rdf="http://www.w3.org/1999/02/22-rdf-syntax-ns#"
   xmlns:svg="http://www.w3.org/2000/svg"
   xmlns="http://www.w3.org/2000/svg"
   xmlns:xlink="http://www.w3.org/1999/xlink"
   version="1.0"
   width="24"
   height="24"
   id="svg2457">
  <metadata
     id="metadata36">
    <rdf:RDF>
      <cc:Work
         rdf:about="">
        <dc:format>image/svg+xml</dc:format>
        <dc:type
           rdf:resource="http://purl.org/dc/dcmitype/StillImage" />
      </cc:Work>
    </rdf:RDF>
  </metadata>
  <defs
     id="defs2459">
    <linearGradient
       id="linearGradient5128">
      <stop
         id="stop5130"
         style="stop-color:#e5e5e5;stop-opacity:1"
         offset="0" />
      <stop
         id="stop5132"
         style="stop-color:#ababab;stop-opacity:1"
         offset="1" />
    </linearGradient>
    <linearGradient
       x1="86.132919"
       y1="105.105"
       x2="84.63858"
       y2="20.895"
       id="linearGradient3260"
       xlink:href="#linearGradient5128"
       gradientUnits="userSpaceOnUse"
       gradientTransform="matrix(0.09614231,0,0,0.09614231,1.8468935,1.9430362)" />
    <linearGradient
       id="linearGradient3397">
      <stop
         id="stop3399"
         style="stop-color:#aaaaaa;stop-opacity:1"
         offset="0" />
      <stop
         id="stop3401"
         style="stop-color:#8c8c8c;stop-opacity:1"
         offset="1" />
    </linearGradient>
    <linearGradient
       x1="21"
       y1="0"
       x2="21"
       y2="16.004715"
       id="linearGradient3264"
       xlink:href="#linearGradient3397"
       gradientUnits="userSpaceOnUse"
       gradientTransform="translate(-17.058189,0)" />
    <linearGradient
       x1="63.9995"
       y1="3.1001"
       x2="63.9995"
       y2="122.8994"
       id="linearGradient3309"
       gradientUnits="userSpaceOnUse">
      <stop
         id="stop3311"
         style="stop-color:#f6f6f6;stop-opacity:1"
         offset="0" />
      <stop
         id="stop3313"
         style="stop-color:#cccccc;stop-opacity:1"
         offset="1" />
    </linearGradient>
    <linearGradient
       x1="25"
       y1="0"
       x2="25"
       y2="16.000105"
       id="linearGradient3262"
       xlink:href="#linearGradient3309"
       gradientUnits="userSpaceOnUse"
       gradientTransform="translate(-17.058189,0)" />
    <linearGradient
       x1="25"
       y1="0"
       x2="25"
       y2="16.000105"
       id="linearGradient2967"
       xlink:href="#linearGradient3309"
       gradientUnits="userSpaceOnUse"
       gradientTransform="translate(-17.058189,0)" />
    <linearGradient
       x1="21"
       y1="0"
       x2="21"
       y2="16.004715"
       id="linearGradient2969"
       xlink:href="#linearGradient3397"
       gradientUnits="userSpaceOnUse"
       gradientTransform="translate(-17.058189,0)" />
    <linearGradient
       x1="86.132919"
       y1="105.105"
       x2="84.63858"
       y2="20.895"
       id="linearGradient2971"
       xlink:href="#linearGradient5128"
       gradientUnits="userSpaceOnUse"
       gradientTransform="matrix(0.09614231,0,0,0.09614231,1.8468935,1.9430362)" />
    <linearGradient
       x1="25.030451"
       y1="0.28819904"
       x2="24.795872"
       y2="15.37132"
       id="linearGradient3791"
       xlink:href="#linearGradient3309"
       gradientUnits="userSpaceOnUse"
       gradientTransform="matrix(-0.69602538,0.71801718,-0.71801718,-0.69602538,28.302469,-1.7860371)" />
    <linearGradient
       x1="21"
       y1="0"
       x2="21"
       y2="16.004715"
       id="linearGradient3793"
       xlink:href="#linearGradient3397"
       gradientUnits="userSpaceOnUse"
       gradientTransform="matrix(-0.69602538,0.71801718,-0.71801718,-0.69602538,28.302469,-1.7860371)" />
  </defs>
  <g
     transform="translate(8,7)"
     id="layer1">
    <g
       id="g2479">
      <path
         d="M 6.9375,0.5 C 6.6890831,0.5 6.5,0.68908218 6.5,0.9375 l 0,1.25 C 5.9460971,2.3297005 5.448836,2.5593783 4.96875,2.84375 L 4.0625,1.9375 c -0.1756569,-0.1756579 -0.449342,-0.1756579 -0.625,0 l -1.5,1.5 c -0.175657,0.1756579 -0.175657,0.4493421 0,0.625 L 2.84375,4.96875 C 2.5593789,5.4488356 2.329701,5.9460968 2.1875,6.5 l -1.25,0 C 0.68908301,6.5 0.5,6.6890821 0.5,6.9375 l 0,2.125 c 1e-8,0.2484178 0.189083,0.4375 0.4375,0.4375 l 1.25,0 c 0.1422009,0.553903 0.371879,1.051164 0.65625,1.53125 L 1.9375,11.9375 c -0.175657,0.175658 -0.175657,0.449342 0,0.625 l 1.5,1.5 c 0.1756579,0.175658 0.449342,0.175658 0.625,0 L 4.96875,13.15625 C 5.4488361,13.440622 5.946097,13.6703 6.5,13.8125 l 0,1.25 c 1e-7,0.248418 0.189083,0.4375 0.4375,0.4375 l 2.125,0 C 9.3109176,15.5 9.5,15.310918 9.5,15.0625 l 0,-1.25 c 0.553903,-0.1422 1.051164,-0.371878 1.53125,-0.65625 l 0.90625,0.90625 c 0.175658,0.175658 0.449342,0.175658 0.625,0 l 1.5,-1.5 c 0.175658,-0.175658 0.175658,-0.449342 0,-0.625 L 13.15625,11.03125 C 13.440622,10.551164 13.6703,10.053903 13.8125,9.5 l 1.25,0 C 15.310918,9.5 15.5,9.3109174 15.5,9.0625 l 0,-2.125 C 15.5,6.6890822 15.310917,6.5 15.0625,6.5 l -1.25,0 C 13.6703,5.9460968 13.440622,5.4488356 13.15625,4.96875 L 14.0625,4.0625 c 0.175658,-0.1756579 0.175658,-0.449342 0,-0.625 l -1.5,-1.5 c -0.175658,-0.1756579 -0.449342,-0.1756579 -0.625,0 L 11.03125,2.84375 C 10.551164,2.5593783 10.053903,2.3297005 9.5,2.1875 l 0,-1.25 C 9.4999996,0.68908218 9.310918,0.5 9.0625,0.5 l -2.125,0 z M 8,6 c 1.104,0 2,0.896 2,2 0,1.104 -0.896,2 -2,2 C 6.896,10 6,9.104 6,8 6,6.896 6.896,6 8,6 z"
         id="path2426"
         style="fill:url(#linearGradient3262);fill-opacity:1;fill-rule:nonzero;stroke:url(#linearGradient3264);stroke-width:0.99999994;stroke-linecap:butt;stroke-linejoin:round;stroke-miterlimit:4;stroke-opacity:1;stroke-dasharray:none;stroke-dashoffset:0;marker:none;visibility:visible;display:block;overflow:visible;enable-background:accumulate" />
      <path
         d="M 8,3.465116 C 5.4994229,3.465116 3.4651163,5.499423 3.4651163,8 3.4651163,10.500577 5.4994229,12.534884 8,12.534884 10.500576,12.534883 12.534884,10.500577 12.534884,8 12.534884,5.499423 10.500576,3.465116 8,3.465116 z M 8,5.55814 c 1.347907,0 2.44186,1.093953 2.44186,2.44186 0,1.347907 -1.093953,2.44186 -2.44186,2.44186 C 6.652093,10.44186 5.5581395,9.347907 5.5581395,8 5.5581395,6.652093 6.652093,5.55814 8,5.55814 z"
         id="path3315"
         style="opacity:0.05;fill:#000000;fill-opacity:1;stroke:none" />
      <path
         d="M 8.0000001,4 C 5.7943997,4 3.9999999,5.7944001 3.9999999,8.0000008 3.9999999,10.2056 5.7943997,12 8.0000001,12 10.2056,12 12,10.2056 12,8.0000008 12,5.7944001 10.2056,4 8.0000001,4 z"
         id="path28"
         style="fill:none;stroke:url(#linearGradient3260);stroke-width:1;stroke-miterlimit:4;stroke-dasharray:none" />
    </g>
  </g>
  <g
     transform="scale(0.75,0.75)"
     id="g2957">
    <g
       id="g2959">
      <path
         d="m 6.4309572,0.66884762 c -0.2484169,0 -0.4375,0.18908218 -0.4375,0.43749998 l 0,1.25 c -0.5539029,0.1422005 -1.051164,0.3718783 -1.53125,0.65625 L 3.0125976,4.5184897 c -0.2843711,0.4800856 -0.514049,0.9773468 -0.65625,1.53125 l -1.25,0 c -0.24841697,0 -0.43749998,0.1890821 -0.43749998,0.4375 l 0,3.0818031 c 1e-8,0.2484178 0.189083,0.4375002 0.43749998,0.4375002 l 1.25,0 c 0.1422009,0.553903 0.371879,1.051164 0.65625,1.53125 L 4.96875,13.15625 c 0.4800861,0.284372 0.4708042,0.345202 1.0247072,0.487402 l 0,1.25 c 1e-7,0.248418 0.189083,0.4375 0.4375,0.4375 l 3.1943682,0.05628 c 0.2484176,0 0.4374996,-0.189082 0.4374996,-0.4375 l 0,-1.25 c 0.553903,-0.1422 0.488339,-0.259313 0.968425,-0.543685 l 2.012435,-1.618457 c 0.284372,-0.480083 0.51405,-0.977344 0.65625,-1.531247 l 1.25,0 c 0.248418,0 0.4375,-0.1890828 0.4375,-0.4375002 l 0,-3.0818031 c 0,-0.2484178 -0.189083,-0.4375 -0.4375,-0.4375 l -1.25,0 c -0.1422,-0.5539032 -0.371878,-1.0511644 -0.65625,-1.53125 l -1.44961,-1.5058921 c -0.480086,-0.2843717 -0.977347,-0.5140495 -1.53125,-0.65625 l 0,-1.25 c 0,-0.2484178 -0.1890816,-0.43749998 -0.4374996,-0.43749998 l -3.1943682,0 z M 8,6 c 1.104,0 2,0.896 2,2 0,1.104 -0.896,2 -2,2 C 6.896,10 6,9.104 6,8 6,6.896 6.896,6 8,6 z"
         id="path2961"
         style="fill:url(#linearGradient2967);fill-opacity:1;fill-rule:nonzero;stroke:url(#linearGradient2969);stroke-width:1.33333337;stroke-linecap:butt;stroke-linejoin:round;stroke-miterlimit:4;stroke-opacity:1;stroke-dasharray:none;stroke-dashoffset:0;marker:none;visibility:visible;display:block;overflow:visible;enable-background:accumulate" />
      <path
         d="M 8,3.465116 C 5.4994229,3.465116 3.4651163,5.499423 3.4651163,8 3.4651163,10.500577 5.4994229,12.534884 8,12.534884 10.500576,12.534883 12.534884,10.500577 12.534884,8 12.534884,5.499423 10.500576,3.465116 8,3.465116 z M 8,5.55814 c 1.347907,0 2.44186,1.093953 2.44186,2.44186 0,1.347907 -1.093953,2.44186 -2.44186,2.44186 C 6.652093,10.44186 5.5581395,9.347907 5.5581395,8 5.5581395,6.652093 6.652093,5.55814 8,5.55814 z"
         id="path2963"
         style="opacity:0.05;fill:#000000;fill-opacity:1;stroke:none" />
      <path
         d="M 8.0000001,4 C 5.7943997,4 3.9999999,5.7944001 3.9999999,8.0000008 3.9999999,10.2056 5.7943997,12 8.0000001,12 10.2056,12 12,10.2056 12,8.0000008 12,5.7944001 10.2056,4 8.0000001,4 z"
         id="path2965"
         style="fill:none;stroke:url(#linearGradient2971);stroke-width:1;stroke-miterlimit:4;stroke-dasharray:none" />
    </g>
  </g>
  <g
     transform="matrix(0.75,0,0,0.75,-8,0)"
     id="g3781">
    <g
       transform="translate(10.666667,16.000001)"
       id="g3783">
      <path
         d="m 9.7929968,14.205525 c 0.172886,-0.178385 0.168745,-0.445737 -0.0096,-0.618642 l -1.1096873,-1.320295 0,-3.2727989 1.1730593,-1.1226517 C 10.019673,7.6927699 10.015516,7.425399 9.8371688,7.2524938 L 8.7570698,6.1422726 C 8.5787018,5.9693677 8.3113307,5.9735262 8.1384258,6.1518944 l -1.2209993,1.1671021 -3.2969123,0 L 2.4956249,6.0721948 C 2.3172541,5.8992926 2.049886,5.9034486 1.8769818,6.0818125 L 0.82407053,7.1295751 c -0.1729022,0.178371 -0.1687473,0.4457383 0.00966,0.6186431 l 1.17891727,1.3203094 0.061872,3.3121954 -1.20772967,1.12265 c -0.172903,0.178372 -0.289329,0.327547 -0.1109247,0.500452 l 1.29633757,1.18822 c 0.1783852,0.172888 0.4457385,0.168746 0.618643,-0.0097 l 1.0951652,-1.196682 3.2329963,0 1.0663515,1.220717 c 0.1783849,0.172888 0.4457377,0.168748 0.6186418,-0.0097 l 1.108996,-0.991155 z M 6.2777791,11.705008 C 5.7754021,12.096769 4.9103076,12.25884 4.3036037,11.643504 3.6968993,11.02817 3.8691922,10.235983 4.3034636,9.7289169 4.7377354,9.2218506 5.7166343,9.0329013 6.3446461,9.5417217 6.9726581,10.050543 6.7801565,11.313248 6.2777791,11.705008 z"
         id="path3785"
         style="fill:url(#linearGradient3791);fill-opacity:1;fill-rule:nonzero;stroke:url(#linearGradient3793);stroke-width:1.33333337;stroke-linecap:butt;stroke-linejoin:round;stroke-miterlimit:4;stroke-opacity:1;stroke-dasharray:none;stroke-dashoffset:0;marker:none;visibility:visible;display:block;overflow:visible;enable-background:accumulate" />
    </g>
  </g>
</svg>

<svg xmlns="http://www.w3.org/2000/svg" xmlns:xlink="http://www.w3.org/1999/xlink" viewBox="0 0 24 24"><defs><linearGradient id="a"><stop offset="0" stop-color="#e5e5e5"/><stop offset="1" stop-color="#ababab"/></linearGradient><linearGradient x1="86.133" y1="105.105" x2="84.639" y2="20.895" id="f" xlink:href="#a" gradientUnits="userSpaceOnUse" gradientTransform="translate(1.847 1.943) scale(.09614)"/><linearGradient id="b"><stop offset="0" stop-color="#aaa"/><stop offset="1" stop-color="#8c8c8c"/></linearGradient><linearGradient x1="21" x2="21" y2="16.005" id="e" xlink:href="#b" gradientUnits="userSpaceOnUse" gradientTransform="translate(-17.058)"/><linearGradient x1="63.999" y1="3.1" x2="63.999" y2="122.899" id="c" gradientUnits="userSpaceOnUse"><stop offset="0" stop-color="#f6f6f6"/><stop offset="1" stop-color="#ccc"/></linearGradient><linearGradient x1="25" x2="25" y2="16" id="d" xlink:href="#c" gradientUnits="userSpaceOnUse" gradientTransform="translate(-17.058)"/><linearGradient x1="25" x2="25" y2="16" id="g" xlink:href="#c" gradientUnits="userSpaceOnUse" gradientTransform="translate(-17.058)"/><linearGradient x1="21" x2="21" y2="16.005" id="h" xlink:href="#b" gradientUnits="userSpaceOnUse" gradientTransform="translate(-17.058)"/><linearGradient x1="86.133" y1="105.105" x2="84.639" y2="20.895" id="i" xlink:href="#a" gradientUnits="userSpaceOnUse" gradientTransform="translate(1.847 1.943) scale(.09614)"/><linearGradient x1="25.03" y1=".288" x2="24.796" y2="15.371" id="j" xlink:href="#c" gradientUnits="userSpaceOnUse" gradientTransform="rotate(134.11 14.53 5.098)"/><linearGradient x1="21" x2="21" y2="16.005" id="k" xlink:href="#b" gradientUnits="userSpaceOnUse" gradientTransform="rotate(134.11 14.53 5.098)"/></defs><path d="M6.938.5A.43.43 0 0 0 6.5.938v1.25a5.82 5.82 0 0 0-1.53.656l-.907-.906a.437.437 0 0 0-.625 0l-1.5 1.5a.437.437 0 0 0 0 .624l.906.907a5.82 5.82 0 0 0-.656 1.53H.938a.43.43 0 0 0-.438.43v2.13c0 .25.19.437.438.437h1.25a5.82 5.82 0 0 0 .656 1.53l-.906.907a.437.437 0 0 0 0 .624l1.5 1.5a.44.44 0 0 0 .624 0l.907-.91a5.7 5.7 0 0 0 1.53.655v1.25c0 .25.19.44.43.44h2.13a.43.43 0 0 0 .437-.44v-1.25a5.82 5.82 0 0 0 1.53-.656l.907.906a.43.43 0 0 0 .624 0l1.5-1.5a.437.437 0 0 0 0-.622l-.91-.906a5.82 5.82 0 0 0 .655-1.53h1.25a.43.43 0 0 0 .44-.437V6.94a.43.43 0 0 0-.44-.438h-1.25a5.82 5.82 0 0 0-.656-1.53l.906-.907a.437.437 0 0 0 0-.625l-1.5-1.5a.437.437 0 0 0-.622 0l-.906.906a5.82 5.82 0 0 0-1.53-.656V.938A.43.43 0 0 0 9.064.5H6.937zM8 6a2 2 0 1 1 0 4 2 2 0 0 1 0-4z" fill="url(#d)" stroke="url(#e)" stroke-linejoin="round" display="block" overflow="visible" transform="translate(8 7)"/><path d="M16 10.465A4.54 4.54 0 0 0 11.465 15 4.54 4.54 0 0 0 16 19.535 4.54 4.54 0 0 0 20.535 15 4.54 4.54 0 0 0 16 10.465zm0 2.093a2.443 2.443 0 0 1 0 4.884 2.443 2.443 0 0 1 0-4.884z" opacity=".05"/><path d="M8 4C5.794 4 4 5.794 4 8s1.794 4 4 4 4-1.794 4-4-1.794-4-4-4z" fill="none" stroke="url(#f)" transform="translate(8 7)"/><path d="M6.43.67a.43.43 0 0 0-.437.436v1.25a5.82 5.82 0 0 0-1.53.657l-1.45 1.505a5.82 5.82 0 0 0-.657 1.532h-1.25a.43.43 0 0 0-.437.437V9.57a.43.43 0 0 0 .43.437h1.25a5.82 5.82 0 0 0 .655 1.53l1.956 1.62c.48.284.47.344 1.024.487v1.25c0 .248.19.437.44.437l3.193.06a.43.43 0 0 0 .437-.432V13.7c.555-.142.49-.26.97-.544l2.013-1.618a5.82 5.82 0 0 0 .657-1.53h1.25a.43.43 0 0 0 .436-.44V6.49a.43.43 0 0 0-.436-.438H13.7a5.82 5.82 0 0 0-.656-1.532l-1.45-1.505a5.82 5.82 0 0 0-1.53-.657v-1.25a.43.43 0 0 0-.44-.437H6.432zM8 6a2 2 0 1 1 0 4 2 2 0 0 1 0-4z" fill="url(#g)" stroke="url(#h)" stroke-width="1.333" stroke-linejoin="round" display="block" overflow="visible" transform="scale(.75)"/><path d="M6 2.6A3.405 3.405 0 0 0 2.6 6c0 1.875 1.525 3.4 3.4 3.4S9.4 7.876 9.4 6 7.876 2.6 6 2.6zm0 1.57a1.832 1.832 0 1 1 0 3.663A1.832 1.832 0 0 1 6 4.17z" opacity=".05"/><path d="M8 4C5.794 4 4 5.794 4 8s1.794 4 4 4 4-1.794 4-4-1.794-4-4-4z" fill="none" stroke="url(#i)" transform="scale(.75)"/><path d="M9.793 14.206a.43.43 0 0 0-.01-.62l-1.11-1.32v-3.27L9.848 7.87a.43.43 0 0 0-.01-.618l-1.08-1.11a.43.43 0 0 0-.62.01L6.918 7.32H3.62L2.497 6.07a.43.43 0 0 0-.62.01L.825 7.13a.43.43 0 0 0 .01.618l1.18 1.32.06 3.313-1.207 1.13c-.173.18-.29.33-.11.5l1.295 1.19a.43.43 0 0 0 .62-.01l1.094-1.195H7l1.065 1.22a.43.43 0 0 0 .62-.01l1.108-.99zm-3.515-2.5c-.503.39-1.368.553-1.974-.062-.607-.616-.435-1.408 0-1.915.434-.51 1.413-.7 2.04-.19.63.51.436 1.77-.066 2.16z" fill="url(#j)" stroke="url(#k)" stroke-width="1.333" stroke-linejoin="round" display="block" overflow="visible" transform="matrix(.75 0 0 .75 0 12)"/></svg>
